X:7832
T:Trallen
C:anon.
O:Sweden
R:Hambo?
Z:Transcribed by Frank Nordberg - http://www.musicaviva.com
F:http://abc.musicaviva.com/tunes/sweden/trallen01.abc
%v = downstroke
M:3/4
L:1/8
K:D
vD2 (DF) EF|D2 FA d2|"_4"e2 (ed) cB|A2 AG (FE)|
D2 (DF) EF|D2 FA d2|"_4"e2 (ed) cB|A2 d2 z2|
vf2 (fe) dc|B2 BA G2|"_4"e2 (ed) cB|A2 AG (FE)|
D2 (DF) EF|D2 FA d2|"_4"e2 (ed) cB|A2 d2 z2|]
W:
W:
W:  From Musica Viva - http://www.musicaviva.com
W:  the Internet center for free sheet music downloads.

